Newaita/actions/24/news-subscribe.svg

<svg height="24" viewBox="0 0 24 24" width="24" xmlns="http://www.w3.org/2000/svg"><g fill="#424242"><path d="m3.96875 2.171875c-1.097656 0-1.984375.886719-1.984375 1.984375v15.875c0 1.101562.886719 1.988281 1.984375 1.988281h15.875c1.101562 0 1.988281-.886719 1.988281-1.988281v-15.875c0-1.097656-.886719-1.984375-1.988281-1.984375zm.992188 1.984375h13.890624c.550782 0 .992188.441406.992188.992188v13.890624c0 .550782-.441406.992188-.992188.992188h-13.890624c-.550782 0-.992188-.441406-.992188-.992188v-13.890624c0-.550782.441406-.992188.992188-.992188zm0 0"/><path d="m6.203125 6.140625h5.457031c.136719 0 .246094.113281.246094.25v.496094c0 .136719-.109375.246093-.246094.246093h-5.457031c-.136719 0-.25-.109374-.25-.246093v-.496094c0-.136719.113281-.25.25-.25zm0 0"/><path d="m6.203125 9.117188h5.457031c.136719 0 .246094.113281.246094.25v.496093c0 .136719-.109375.246094-.246094.246094h-5.457031c-.136719 0-.25-.109375-.25-.246094v-.496093c0-.136719.113281-.25.25-.25zm0 0"/><path d="m6.203125 12.09375h5.457031c.136719 0 .246094.113281.246094.25v.496094c0 .136718-.109375.246094-.246094.246094h-5.457031c-.136719 0-.25-.109376-.25-.246094v-.496094c0-.136719.113281-.25.25-.25zm0 0"/><path d="m6.203125 15.070312h11.410156c.136719 0 .246094.113282.246094.25v.496094c0 .136719-.109375.246094-.246094.246094h-11.410156c-.136719 0-.25-.109375-.25-.246094v-.496094c0-.136718.113281-.25.25-.25zm0 0"/><path d="m13.644531 6.140625c-.136719 0-.25.109375-.25.25v6.449219c0 .136718.113281.246094.25.246094h4.464844c.136719 0 .246094-.109376.246094-.246094v-6.449219c0-.140625-.109375-.25-.246094-.25zm.867188.992187h2.730469c.066406 0 .121093.054688.121093.125v4.714844c0 .066406-.054687.121094-.121093.121094h-2.730469c-.066407 0-.125-.054688-.125-.121094v-4.714844c0-.070312.058593-.125.125-.125zm0 0"/></g></svg>

<svg xmlns="http://www.w3.org/2000/svg" xmlns:xlink="http://www.w3.org/1999/xlink" width="24px" height="24px" viewBox="0 0 24 24" version="1.1">
<g id="surface1">
     <defs>
  <style id="current-color-scheme" type="text/css">
   .ColorScheme-Text { color:#424242; } .ColorScheme-Highlight { color:#eeeeee; }
  </style>
 </defs>
<path style="fill:currentColor" class="ColorScheme-Text" d="M 3.96875 2.171875 C 2.871094 2.171875 1.984375 3.058594 1.984375 4.15625 L 1.984375 20.03125 C 1.984375 21.132812 2.871094 22.019531 3.96875 22.019531 L 19.84375 22.019531 C 20.945312 22.019531 21.832031 21.132812 21.832031 20.03125 L 21.832031 4.15625 C 21.832031 3.058594 20.945312 2.171875 19.84375 2.171875 Z M 4.960938 4.15625 L 18.851562 4.15625 C 19.402344 4.15625 19.84375 4.597656 19.84375 5.148438 L 19.84375 19.039062 C 19.84375 19.589844 19.402344 20.03125 18.851562 20.03125 L 4.960938 20.03125 C 4.410156 20.03125 3.96875 19.589844 3.96875 19.039062 L 3.96875 5.148438 C 3.96875 4.597656 4.410156 4.15625 4.960938 4.15625 Z M 4.960938 4.15625 "/>
     <defs>
  <style id="current-color-scheme" type="text/css">
   .ColorScheme-Text { color:#424242; } .ColorScheme-Highlight { color:#eeeeee; }
  </style>
 </defs>
<path style="fill:currentColor" class="ColorScheme-Text" d="M 6.203125 6.140625 L 11.660156 6.140625 C 11.796875 6.140625 11.90625 6.253906 11.90625 6.390625 L 11.90625 6.886719 C 11.90625 7.023438 11.796875 7.132812 11.660156 7.132812 L 6.203125 7.132812 C 6.066406 7.132812 5.953125 7.023438 5.953125 6.886719 L 5.953125 6.390625 C 5.953125 6.253906 6.066406 6.140625 6.203125 6.140625 Z M 6.203125 6.140625 "/>
     <defs>
  <style id="current-color-scheme" type="text/css">
   .ColorScheme-Text { color:#424242; } .ColorScheme-Highlight { color:#eeeeee; }
  </style>
 </defs>
<path style="fill:currentColor" class="ColorScheme-Text" d="M 6.203125 9.117188 L 11.660156 9.117188 C 11.796875 9.117188 11.90625 9.230469 11.90625 9.367188 L 11.90625 9.863281 C 11.90625 10 11.796875 10.109375 11.660156 10.109375 L 6.203125 10.109375 C 6.066406 10.109375 5.953125 10 5.953125 9.863281 L 5.953125 9.367188 C 5.953125 9.230469 6.066406 9.117188 6.203125 9.117188 Z M 6.203125 9.117188 "/>
     <defs>
  <style id="current-color-scheme" type="text/css">
   .ColorScheme-Text { color:#424242; } .ColorScheme-Highlight { color:#eeeeee; }
  </style>
 </defs>
<path style="fill:currentColor" class="ColorScheme-Text" d="M 6.203125 12.09375 L 11.660156 12.09375 C 11.796875 12.09375 11.90625 12.207031 11.90625 12.34375 L 11.90625 12.839844 C 11.90625 12.976562 11.796875 13.085938 11.660156 13.085938 L 6.203125 13.085938 C 6.066406 13.085938 5.953125 12.976562 5.953125 12.839844 L 5.953125 12.34375 C 5.953125 12.207031 6.066406 12.09375 6.203125 12.09375 Z M 6.203125 12.09375 "/>
     <defs>
  <style id="current-color-scheme" type="text/css">
   .ColorScheme-Text { color:#424242; } .ColorScheme-Highlight { color:#eeeeee; }
  </style>
 </defs>
<path style="fill:currentColor" class="ColorScheme-Text" d="M 6.203125 15.070312 L 17.613281 15.070312 C 17.75 15.070312 17.859375 15.183594 17.859375 15.320312 L 17.859375 15.816406 C 17.859375 15.953125 17.75 16.0625 17.613281 16.0625 L 6.203125 16.0625 C 6.066406 16.0625 5.953125 15.953125 5.953125 15.816406 L 5.953125 15.320312 C 5.953125 15.183594 6.066406 15.070312 6.203125 15.070312 Z M 6.203125 15.070312 "/>
     <defs>
  <style id="current-color-scheme" type="text/css">
   .ColorScheme-Text { color:#424242; } .ColorScheme-Highlight { color:#eeeeee; }
  </style>
 </defs>
<path style="fill:currentColor" class="ColorScheme-Text" d="M 13.644531 6.140625 C 13.507812 6.140625 13.394531 6.25 13.394531 6.390625 L 13.394531 12.839844 C 13.394531 12.976562 13.507812 13.085938 13.644531 13.085938 L 18.109375 13.085938 C 18.246094 13.085938 18.355469 12.976562 18.355469 12.839844 L 18.355469 6.390625 C 18.355469 6.25 18.246094 6.140625 18.109375 6.140625 Z M 14.511719 7.132812 L 17.242188 7.132812 C 17.308594 7.132812 17.363281 7.1875 17.363281 7.257812 L 17.363281 11.972656 C 17.363281 12.039062 17.308594 12.09375 17.242188 12.09375 L 14.511719 12.09375 C 14.445312 12.09375 14.386719 12.039062 14.386719 11.972656 L 14.386719 7.257812 C 14.386719 7.1875 14.445312 7.132812 14.511719 7.132812 Z M 14.511719 7.132812 "/>
</g>
</svg>
